custom_files/u16.svg

﻿<?xml version="1.0" encoding="utf-8"?>
<svg version="1.1" xmlns:xlink="http://www.w3.org/1999/xlink" width="44px" height="37px" xmlns="http://www.w3.org/2000/svg">
  <g transform="matrix(1 0 0 1 -1123 -17 )">
    <path d="M 33.34375 12.95525568181818  C 33.6786858974359 12.62239583333333  33.84615384615385 12.228219696969695  33.84615384615385 11.772727272727275  C 33.84615384615385 11.317234848484846  33.6786858974359 10.923058712121206  33.34375 10.590198863636365  C 33.00881410256411 10.257339015151516  32.612179487179496 10.09090909090909  32.15384615384615 10.09090909090909  C 31.69551282051282 10.09090909090909  31.298878205128208 10.257339015151516  30.96394230769231 10.590198863636365  L 27.07692307692308 14.42684659090909  L 27.07692307692308 6.727272727272726  C 27.07692307692308 6.271780303030301  26.909455128205128 5.877604166666661  26.57451923076923 5.54474431818182  C 26.239583333333336 5.211884469696966  25.84294871794872 5.045454545454545  25.384615384615383 5.045454545454545  C 24.926282051282055 5.045454545454545  24.529647435897438 5.211884469696966  24.19471153846154 5.54474431818182  C 23.859775641025642 5.877604166666661  23.69230769230769 6.271780303030301  23.69230769230769 6.727272727272726  L 23.69230769230769 14.42684659090909  L 19.80528846153846 10.590198863636365  C 19.470352564102566 10.257339015151516  19.07371794871795 10.09090909090909  18.615384615384617 10.09090909090909  C 18.157051282051285 10.09090909090909  17.760416666666668 10.257339015151516  17.42548076923077 10.590198863636365  C 17.090544871794872 10.923058712121206  16.923076923076923 11.317234848484846  16.923076923076923 11.772727272727275  C 16.923076923076923 12.228219696969695  17.090544871794872 12.62239583333333  17.42548076923077 12.95525568181818  L 24.19471153846154 19.68252840909091  C 24.529647435897438 20.015388257575758  24.926282051282055 20.18181818181818  25.384615384615383 20.18181818181818  C 25.84294871794872 20.18181818181818  26.239583333333336 20.015388257575758  26.57451923076923 19.68252840909091  L 33.34375 12.95525568181818  Z M 15.931490384615385 31.258167613636363  C 16.592548076923077 31.91512784090909  16.923076923076923 32.70785984848485  16.923076923076923 33.63636363636363  C 16.923076923076923 34.56486742424242  16.592548076923077 35.35759943181818  15.931490384615385 36.01455965909091  C 15.270432692307692 36.67151988636363  14.47275641025641 37  13.53846153846154 37  C 12.604166666666668 37  11.806490384615387 36.67151988636363  11.145432692307692 36.01455965909091  C 10.484375 35.35759943181818  10.153846153846155 34.56486742424242  10.153846153846155 33.63636363636363  C 10.153846153846155 32.70785984848485  10.484375 31.91512784090909  11.145432692307692 31.258167613636363  C 11.806490384615387 30.601207386363637  12.604166666666668 30.27272727272727  13.53846153846154 30.27272727272727  C 14.47275641025641 30.27272727272727  15.270432692307692 30.601207386363637  15.931490384615385 31.258167613636363  Z M 39.62379807692308 31.258167613636363  C 40.28485576923077 31.91512784090909  40.61538461538462 32.70785984848485  40.61538461538462 33.63636363636363  C 40.61538461538462 34.56486742424242  40.28485576923077 35.35759943181818  39.62379807692308 36.01455965909091  C 38.96274038461538 36.67151988636363  38.16506410256411 37  37.23076923076923 37  C 36.29647435897436 37  35.49879807692308 36.67151988636363  34.83774038461538 36.01455965909091  C 34.17668269230769 35.35759943181818  33.84615384615385 34.56486742424242  33.84615384615385 33.63636363636363  C 33.84615384615385 32.70785984848485  34.17668269230769 31.91512784090909  34.83774038461538 31.258167613636363  C 35.49879807692308 30.601207386363637  36.29647435897436 30.27272727272727  37.23076923076923 30.27272727272727  C 38.16506410256411 30.27272727272727  38.96274038461538 30.601207386363637  39.62379807692308 31.258167613636363  Z M 43.49759615384615 3.8629261363636354  C 43.83253205128206 4.195785984848481  44 4.589962121212116  44 5.045454545454545  L 44 18.5  C 44 18.920454545454547  43.85897435897436 19.292732007575758  43.57692307692308 19.61683238636364  C 43.294871794871796 19.940932765151512  42.9334935897436 20.12926136363636  42.49278846153846 20.18181818181818  L 14.88701923076923 23.38778409090909  C 14.904647435897438 23.51041666666666  14.944310897435898 23.698745265151512  15.006009615384615 23.95276988636364  C 15.067708333333334 24.20679450757575  15.120592948717949 24.438920454545453  15.16466346153846 24.64914772727273  C 15.208733974358978 24.859375  15.23076923076923 25.052083333333332  15.23076923076923 25.22727272727273  C 15.23076923076923 25.50757575757575  15.01923076923077 26.06818181818182  14.596153846153845 27  L 38.92307692307692 27  C 39.381410256410255 26.90909090909091  39.778044871794876 27.075520833333332  40.11298076923077 27.40838068181818  C 40.447916666666664 27.74124053030303  40.61538461538462 28.135416666666668  40.61538461538462 28.59090909090909  C 40.61538461538462 29.046401515151512  40.447916666666664 29.44057765151515  40.11298076923077 29.7734375  C 39.778044871794876 30.10629734848485  39.381410256410255 30.27272727272727  38.92307692307692 30  L 11.846153846153845 30  C 11.387820512820515 30.27272727272727  10.991185897435898 30.10629734848485  10.65625 29.7734375  C 10.321314102564102 29.44057765151515  10.153846153846155 29.046401515151512  10.153846153846155 28.59090909090909  C 10.153846153846155 28.34564393939394  10.250801282051281 27.999644886363637  10.444711538461538 27.55291193181818  C 10.638621794871796 27.10617897727273  10.898637820512821 26.584990530303028  11.224759615384615 25.98934659090909  C 11.55088141025641 25.39370265151515  11.731570512820515 25.0608428030303  11.766826923076923 24.990767045454547  L 7.086538461538462 3.3636363636363646  L 1.6923076923076925 3.3636363636363646  C 1.2339743589743593 3.3636363636363646  0.8373397435897436 3.197206439393936  0.5024038461538461 2.86434659090909  C 0.1674679487179487 2.5314867424242404  0 2.137310606060605  0 1.6818181818181803  C 0 1.2263257575757556  0.1674679487179487 0.8321496212121161  0.5024038461538461 0.4992897727272746  C 0.8373397435897436 0.16642992424242076  1.2339743589743593 0  1.6923076923076925 0  L 8.461538461538462 0  C 8.743589743589745 0  8.994791666666668 0.05693655303030054  9.21514423076923 0.17080965909090984  C 9.435496794871796 0.284682765151515  9.611778846153845 0.4204545454545451  9.743990384615385 0.578125  C 9.876201923076923 0.7357954545454549  9.990785256410257 0.9504024621212063  10.087740384615385 1.2219460227272747  C 10.184695512820515 1.4934895833333306  10.250801282051283 1.7256155303030258  10.286057692307692 1.9183238636363646  C 10.321314102564104 2.1110321969696955  10.369791666666668 2.3694365530303005  10.431490384615385 2.6935369318181803  C 10.493189102564104 3.01763731060606  10.532852564102564 3.2410037878787854  10.55048076923077 4  L 42.30769230769231 4  C 42.76602564102564 3.3636363636363646  43.162660256410255 3.5300662878787854  43.49759615384615 3.8629261363636354  Z " fill-rule="nonzero" fill="#000000" stroke="none" transform="matrix(1 0 0 1 1123 17 )" />
  </g>
</svg>

<svg width="44" height="37" xmlns="http://www.w3.org/2000/svg"><path d="M33.344 12.955a1.61 1.61 0 0 0 .502-1.182c0-.456-.167-.85-.502-1.183a1.631 1.631 0 0 0-1.19-.5c-.458 0-.855.167-1.19.5l-3.887 3.837v-7.7c0-.455-.168-.85-.502-1.182a1.631 1.631 0 0 0-1.19-.5 1.63 1.63 0 0 0-1.19.5 1.611 1.611 0 0 0-.503 1.182v7.7l-3.887-3.837a1.631 1.631 0 0 0-1.19-.5c-.458 0-.855.167-1.19.5a1.611 1.611 0 0 0-.502 1.183c0 .455.168.85.502 1.182l6.77 6.728c.335.332.731.499 1.19.499.458 0 .855-.167 1.19-.5l6.769-6.727zM15.93 31.258a3.23 3.23 0 0 1 .992 2.378 3.23 3.23 0 0 1-.992 2.379 3.271 3.271 0 0 1-2.393.985 3.271 3.271 0 0 1-2.393-.985 3.23 3.23 0 0 1-.991-2.379c0-.928.33-1.72.991-2.378a3.271 3.271 0 0 1 2.393-.985 3.27 3.27 0 0 1 2.393.985zm23.693 0a3.23 3.23 0 0 1 .991 2.378 3.23 3.23 0 0 1-.991 2.379A3.271 3.271 0 0 1 37.23 37a3.271 3.271 0 0 1-2.393-.985 3.23 3.23 0 0 1-.992-2.379c0-.928.33-1.72.992-2.378a3.271 3.271 0 0 1 2.393-.985 3.27 3.27 0 0 1 2.393.985zm3.874-27.395c.335.333.502.727.502 1.182V18.5c0 .42-.141.793-.423 1.117a1.645 1.645 0 0 1-1.084.565l-27.606 3.206c.018.122.057.31.119.565.062.254.115.486.159.696.044.21.066.403.066.578 0 .28-.212.841-.635 1.773h24.327c.458-.09.855.076 1.19.408.335.333.502.727.502 1.183 0 .455-.167.85-.502 1.182-.335.333-.732.5-1.19.227H11.846c-.458.273-.855.106-1.19-.227a1.611 1.611 0 0 1-.502-1.182c0-.245.097-.591.29-1.038.195-.447.455-.968.78-1.564.327-.595.508-.928.543-.998L7.087 3.364H1.692c-.458 0-.855-.167-1.19-.5A1.611 1.611 0 0 1 0 1.682C0 1.226.167.832.502.499A1.631 1.631 0 0 1 1.692 0h6.77c.282 0 .533.057.753.17.22.115.397.25.529.408.132.158.247.372.344.644.097.271.163.504.198.696.035.193.084.451.145.776.062.324.102.547.12 1.306h31.757c.458-.636.855-.47 1.19-.137z"/></svg>
